docs/.gitbook/assets/icon-upload-16@light.svg

<svg width="32" height="32" viewBox="0 0 16 16" fill="none" xmlns="http://www.w3.org/2000/svg">
<rect x="0" y="0" width="16" height="16" fill="#fff"/>
<path fill-rule="evenodd" clip-rule="evenodd" d="M8 1C8.20855 1 8.40769 1.08684 8.5496 1.23966L11.7996 4.73966C12.0814 5.04319 12.0639 5.51774 11.7603 5.7996C11.4568 6.08145 10.9823 6.06387 10.7004 5.76034L8.75 3.6599V10.25C8.75 10.6642 8.41421 11 8 11C7.58579 11 7.25 10.6642 7.25 10.25V3.6599L5.29959 5.76034C5.01774 6.06387 4.54319 6.08145 4.23966 5.7996C3.93613 5.51774 3.91855 5.04319 4.2004 4.73966L7.4504 1.23966C7.59231 1.08684 7.79145 1 8 1ZM1.75 11C2.16421 11 2.5 11.3358 2.5 11.75V12.25C2.5 12.9404 3.05964 13.5 3.75 13.5H12.25C12.9404 13.5 13.5 12.9404 13.5 12.25V11.75C13.5 11.3358 13.8358 11 14.25 11C14.6642 11 15 11.3358 15 11.75V12.25C15 13.7688 13.7688 15 12.25 15H3.75C2.23122 15 1 13.7688 1 12.25V11.75C1 11.3358 1.33579 11 1.75 11Z" fill="#000"/>
</svg>

<svg xmlns="http://www.w3.org/2000/svg" width="32" height="32" fill="none" viewBox="0 0 16 16"><path fill="#fff" d="M0 0h16v16H0z"/><path fill="#000" fill-rule="evenodd" d="M8 1a.75.75 0 0 1 .55.24l3.25 3.5a.75.75 0 0 1-1.1 1.02l-1.95-2.1v6.59a.75.75 0 0 1-1.5 0V3.66L5.3 5.76a.75.75 0 1 1-1.1-1.02l3.25-3.5A.75.75 0 0 1 8 1M1.75 11a.75.75 0 0 1 .75.75v.5c0 .69.56 1.25 1.25 1.25h8.5c.69 0 1.25-.56 1.25-1.25v-.5a.75.75 0 0 1 1.5 0v.5A2.75 2.75 0 0 1 12.25 15h-8.5A2.75 2.75 0 0 1 1 12.25v-.5a.75.75 0 0 1 .75-.75" clip-rule="evenodd"/></svg>
